!!!!SEGMENT: pl-wtm--1127-3625--001-002_rozycki-ludomir--4-impromptus-op-6-2.krn
!!!cenid: 19xx:145
!!!COM: Różycki, Ludomir
!!!COM-rismID: pe50045573
!!!CDT: 1883-1953
!!!CNT: Polish
!!!GTL: 4 Impromptus op. 6
!!!OTL: 2.
!!!OMV: 002
!!!PDT: 1924
!!!AGN: Secular: Impromptu
!!!YEC: Copyright 2022 Narodowy Instytut Fryderyka Chopina (https://polishscores.org)
!!!YEM: License CC-BY-4.0 (https://creativecommons.org/licenses/by/4.0)
!!!SMS-siglum: PL-Wtm
!!!SMS-shelfmark: 1127 3625
!!!SMS-variant:
!!!SMS-altvar:
!!!SMS-shelfwork: 001-002 G
!!!NIFC-rismSourceID: 1001192259
!!!NIFC-rismChildID: 1001192259
!!!NIFC-islandoraID: pl-wtm:82111
!!!URL-pdf-islandora: https://repozytorium.nifc.pl/islandora/object/pl-wtm%3A82111/datastream/PDF/view
!!!URL-scan: https://polish.musicsources.pl/pl/lokalizacje/galeria/druki-muzyczne/18461/5 @EN{Scan on Polish Music Sources Website} @PL{Skany w portalu Dziedzictwo Muzyki Polskiej w otwartym dostępie}
!!!IIIF:
!!!ONB-nifc:
!!!AIN: 1 piano
!!!key: g
**kern	**fing	**kern	**fing	**dynam
*part1	*	*part1	*	*part1
*staff2	*	*staff1	*	*staff1/2
*group1	*	*group1	*	*
*ICklav	*	*ICklav	*	*
*Ipiano	*	*Ipiano	*	*
*I"PIANO.	*	*I"PIANO.	*	*
*I'	*	*I'	*	*
*clefF4	*	*clefG2	*	*
*k[b-e-]	*	*k[b-e-]	*	*
*g:	*	*g:	*	*
*M4/4	*	*M4/4	*	*
*met(c)	*	*met(c)	*	*
=1	=1	=1	=1	=1
!!LO:TX:a:B:t=Andante, doloroso. [half] = 72
4r	.	1dd 1b- 1en~>	.	p
*ped	*	*	*	*
(8GGG/L	5	.	.	.
8EEn/J	2	.	.	.
8BB-/L	1	.	.	.
8GG/	5	.	.	.
8En/	2	.	.	.
*Xped	*	*	*	*
8B-/J)	1	.	.	.
=2	=2	=2	=2	=2
4r	.	1cc#X 1a 1e-X~>	4	.
*ped	*	*	*	*
(8GGG/L	1	.	.	.
8EE-X/J	2	.	.	.
8AA/L	5	.	.	.
8GG/	1	.	.	.
8E-X/	2	.	.	.
*Xped	*	*	*	*
8A/J)	1	.	.	.
=3	=3	=3	=3	=3
*	*	*^	*	*
4r	.	(2dd:/	1f: 1B-:	.	.
*ped	*	*	*	*	*
(8GGG/L	.	.	.	.	.
8DD/J	.	.	.	.	.
!	!	!LO:TX:t=P:problem:łuczek nad placowaniem	!	!	!
8BB-/L	.	2b-/	.	45	.
8GG/	.	.	.	.	.
8D/	.	.	.	.	.
8B-/J)	.	.	.	.	.
*	*	*v	*v	*	*
=4	=4	=4	=4	=4
4r	.	1g 1f 1B-)	4	.
*ped	*	*	*	*
(8GGG/L	.	.	.	.
8DD/J	.	.	.	.
8BB-/L	.	.	.	.
8GG/	.	.	.	.
8D/	.	.	.	.
8B-/J)	.	.	.	.
!!LO:LB:g=original
=5	=5	=5	=5	=5
!LO:TX:b:i:t=con [Ped]	!	!	!	!
4r	.	1ff 1b- 1f~	.	.
(8GGG/L	.	.	.	.
8DD/J	.	.	.	.
8BB-/L	.	.	.	.
8GG/	.	.	.	.
8D/	.	.	.	.
8B-/J)	.	.	.	.
=6	=6	=6	=6	=6
4r	.	1ff#X 1cc 1f#X~	.	.
(8GGG/L	.	.	.	.
8EE-/J	.	.	.	.
8AA/L	.	.	.	.
8GG/	.	.	.	.
8E-/	.	.	.	.
8A/J)	.	.	.	.
=7	=7	=7	=7	=7
*	*	*^	*	*
4r	.	(2bb-:/	1dd: 1g:	.	.
(8GGG/L	.	.	.	.	.
8EEn/J	.	.	.	.	.
!	!	!LO:TX:t=P:problem:łuczek nad placowaniem	!	!	!
8BB-/L	.	2gg/	.	45	.
8GG/	.	.	.	.	.
8En/	.	.	.	.	.
8B-/J)	.	.	.	.	.
=8	=8	=8	=8	=8	=8
4r	.	1dd 1cc)	(2f\	3	.
(8GGG/L	.	.	.	.	.
8EE-X/J	.	.	.	.	.
8AA/L	.	.	2f#X\	1	.
8GG/	.	.	.	.	.
8E-X/	.	.	.	.	.
8A/J)	.	.	.	.	.
*	*	*v	*v	*	*
!!LO:LB:g=original
=9	=9	=9	=9	=9
!	!	!	!	!LO:DY:t=più %s
4r	.	1dd 1b- 1g~)	2 3 5	p
(8GGG/L	.	.	.	.
8DD/J	.	.	.	.
8BB-/L	.	.	.	.
8GG/	.	.	.	.
8D/	.	.	.	.
8B-/J)	.	.	.	.
=10	=10	=10	=10	=10
4r	.	1cc#X 1a 1f~>	4	.
(8GGG/L	.	.	.	.
8EE-/J	.	.	.	.
8AA/L	.	.	.	.
8GG/	.	.	.	.
8E-/	.	.	.	.
8A/J)	.	.	.	.
=11	=11	=11	=11	=11
*	*	*^	*	*
4r	.	(2dd/	1a-X 1d	1 2 5	.
(8GGG/L	.	.	.	.	.
8EEn/J	.	.	.	.	.
8BB-/L	.	2b-/	.	3	.
8GG/	.	.	.	.	.
8En/	.	.	.	.	.
8B-/J)	.	.	.	.	.
=12	=12	=12	=12	=12	=12
4r	.	1g	(2c#X\	2 5	.
(8GGG/L	.	.	.	.	.
8EE-X/J	.	.	.	.	.
8AA/L	.	.	[2B-\)	1	.
8GG/	.	.	.	.	.
8E-X/	.	.	.	.	.
8A/J)	.	.	.	.	.
*	*	*v	*v	*	*
!!LO:LB:g=original
=13	=13	=13	=13	=13
4r	.	1d 1B-])	.	.
(8GGG/L	.	.	.	.
8DD/J	.	.	.	.
8BB-/L	.	.	.	.
8GG/	.	.	.	.
8D/	.	.	.	.
8B-/J)	.	.	.	.
=14	=14	=14	=14	=14
4r	.	1d 1B-	.	pp
(8GGG/L	.	.	.	.
8DD/J	.	.	.	.
8BB-/L	.	.	.	.
!!LO:TX:a:i:t=rall.
8GG/	.	.	.	.
8D/	.	.	.	.
8B-/J)	.	.	.	.
=15	=15	=15	=15	=15
*	*	*^	*	*
!!LO:TX:a:B:t=Tempo I.
4r	.	1dd 1b-	(2g~\	2 3 5	mf
(8GGG/L	.	.	.	.	.
8DD/J	.	.	.	.	.
8BB-/L	.	.	2f#X~\)	.	.
8GG/	.	.	.	.	.
8D/	.	.	.	.	.
8B-/J)	.	.	.	.	.
=16	=16	=16	=16	=16	=16
4r	.	1cc#X 1a	(2fn~\	2 3 5	.
(8GGG/L	.	.	.	.	.
8EE-/J	.	.	.	.	.
8AA/L	.	.	2en~\)	.	.
8GG/	.	.	.	.	.
8E-X/	.	.	.	.	.
8A/J)	.	.	.	.	.
*	*	*v	*v	*	*
!!LO:LB:g=original
=17	=17	=17	=17	=17
4r	.	(>2dd 2f#X 2e-X/	5	.
(8GGG/L	.	.	.	.
8DD/J	.	.	.	.
8BB-/L	.	2b- 2g 2d/	3	.
8GG/	.	.	.	.
8D/	.	.	.	.
8B-/J)	.	.	.	.
=18	=18	=18	=18	=18
*	*	*^	*	*
4r	.	1g 1d)	(2c\	2 3 5	.
(8GGG/L	.	.	.	.	.
8DD/J	.	.	.	.	.
8BB-/L	.	.	2B-\)	1	.
8GG/	.	.	.	.	.
8D/	.	.	.	.	.
8B-/J)	.	.	.	.	.
=19	=19	=19	=19	=19	=19
!	!	!	!	!	!LO:DY:t=più %s
4r	.	1ff 1dd 1f~	(>2cc/	1 3 4 5	f
(8GGG/L	.	.	.	.	.
8DD/J	.	.	.	.	.
8BB-/L	.	.	2b-/)	.	.
8GG/	.	.	.	.	.
8D/	.	.	.	.	.
8B-/J)	.	.	.	.	.
=20	=20	=20	=20	=20	=20
4r	.	1ff#X 1cc 1f#X~	(>2b-/	.	.
(8GGG/L	.	.	.	.	.
8EE-/J	.	.	.	.	.
8AA/L	.	.	2a/)	.	.
8GG/	.	.	.	.	.
8E-/	.	.	.	.	.
8A/J)	.	.	.	.	.
!!LO:PB:g=original
=21	=21	=21	=21	=21	=21
!	!	!LO:TX:t=P:problem:klamra	!	!	!
4r	.	2bb- 2dd 2a/	2g\	.	<
(8GGG/L	.	.	.	.	.
8EEn/J	.	.	.	.	.
!	!	!LO:TX:t=P:problem:klamra	!	!	!
8BB-/L	.	2gg 2dd 2b-/	2f\	.	.
8GG/	.	.	.	.	.
8En/	.	.	.	.	.
8B-/J)	.	.	.	.	.
=22	=22	=22	=22	=22	=22
4r	.	1dd 1cc	(2f (2en\	.	.
(8GGG/L	.	.	.	.	.
8EE-X/J	.	.	.	.	.
8AA/L	.	.	2f#X 2e-X\))	.	.
8GG/	.	.	.	.	.
8E-/	.	.	.	.	.
8A/J)	.	.	.	.	.
*	*	*v	*v	*	*
=23	=23	=23	=23	=23
*^	*	*	*	*
*ped	*	*below	*	*	*
2A~/	4rEE	1	1dd 1b- 1d	.	f
.	.	.	.	.	<
.	(8GGG\L	5	.	.	.
.	8DD\J)	2	.	.	.
2G~/	8rGG	1	.	.	.
*ped	*	*	*	*	*
.	(8GG\L	5	.	.	.
.	8D\	2	.	.	.
.	8B-\J)	1	.	.	.
=24	=24	=24	=24	=24	=24
*ped	*	*	*	*	*
2F~/	4rEE	1	1cc#X 1a 1c#X	.	.
.	(8GGG\L	.	.	.	.
.	8FF\J)	.	.	.	.
*ped	*	*	*	*	*
2En~/	8rEE	1	.	.	.
.	(8GG\L	5	.	.	.
.	8E\	2	.	.	.
.	8A\J)	1	.	.	.
!!LO:LB:g=original
=25	=25	=25	=25	=25	=25
*ped	*	*	*	*	*
2E-X~/	4rEE	.	2dd 2f#X 2d/	.	<
.	(8GGG\L	5	.	.	.
.	8EE-\J)	2	.	.	.
*ped	*	*	*	*	*
2D~/	8rEE	.	2b- 2g 2B-/	.	.
.	(8GG\L	.	.	.	.
.	8D\	.	.	.	.
.	8B-\J)	.	.	.	.
=26	=26	=26	=26	=26	=26
*ped	*	*	*	*	*
2C~/	4rCC	.	1g 1d 1G	.	.
.	(8GGG\L	5	.	.	.
.	8CC\J)	2	.	.	.
*ped	*	*	*	*	*
2BB-~/	8rCC	.	.	.	.
.	(8GG\L	.	.	.	.
.	8D\	.	.	.	.
.	8B-\J)	.	.	.	.
=27	=27	=27	=27	=27	=27
*ped	*	*	*	*	*
(2c 2C/	4rCC	.	1ff 1dd 1f	.	.
.	(8GGG\L	.	.	.	.
.	8DD\J)	.	.	.	.
*ped	*	*	*	*	*
2B- 2BB-/)	8rCC	.	.	.	.
.	(8GG\L	.	.	.	.
.	8D\	.	.	.	.
.	8B-\J)	.	.	.	.
=28	=28	=28	=28	=28	=28
*ped	*	*	*	*	*
(2B- 2BB-/	4rCC	.	1ff#X 1dd 1cc 1f#X	.	.
.	(8GGG\L	.	.	.	.
.	8EE-\J)	.	.	.	.
*ped	*	*	*	*	*
2A 2AA/)	8rCC	.	.	.	.
.	(8GG\L	.	.	.	.
.	8E-\	.	.	.	.
.	8A\J)	.	.	.	.
!!LO:LB:g=original
=29	=29	=29	=29	=29	=29
*ped	*	*	*	*	*
!	!	!	!	!	!LO:HP:t=molto cresc.
2G 2GG/	4r	.	2bb- 2dd 2a 2g\	.	<
.	(8GGG\L	.	.	.	.
.	8EEn\J)	.	.	.	.
*ped	*	*	*	*	*
2F 2FF/	8r	.	2gg 2dd 2b- 2g\	.	.
.	(8GG\L	.	.	.	.
.	8En\	.	.	.	.
.	8B-\J)	.	.	.	.
=30	=30	=30	=30	=30	=30
*	*	*	*^	*	*
*ped	*	*	*	*	*	*
2En 2EEn/	4r	.	1dd 1cc 1d	2f/	.	.
.	(8GGG\L	.	.	.	.	.
.	8EE-X\J	.	.	.	.	.
*ped	*	*	*	*	*	*
2E-X 2EE-X/	8AA\L	.	.	2f#X/	.	.
.	8GG\	5	.	.	.	.
.	8E-\	2	.	.	.	.
.	8A\J)	1	.	.	.	.
=31	=31	=31	=31	=31	=31	=31
*ped	*	*	*	*	*	*
4r	1D 1BB- 1GG 1DD^	.	1ddd 1bb- 1gg 1dd^	4r	.	ff
N(16GGG\LL	.	5	.	16rF<	.	.
!	!	!	!	!	!	!LO:DY:rj
16rCC	.	.	.	16G<LL 16GG</	.	mf
16DD\JJ	.	2	.	16rA<	.	.
16rGG	.	.	.	16d<JJ 16D</	.	.
16BB-\LL	.	1	.	16rb	.	.
16rGG	.	.	.	16b-LL 16B-/	.	.
16GG\JJ	.	5	.	16rb	.	.
16rGG	.	.	.	16gJJ 16G/	.	.
16D\LL	.	2	.	16rb	.	.
16rF	.	.	.	16ddLL 16d/	.	.
16B-\JJ	.	1	.	16rb	.	.
*Xped	*	*	*	*	*	*
16r	.	.	.	16bb-JJ 16b-/N)	.	.
!!LO:LB:g=original
=32	=32	=32	=32	=32	=32	=32
*ped	*	*	*	*	*	*
4rc	1C#X 1AA 1FF 1CC#X^	.	1ccc#X 1aa 1ff 1cc#X^	4r	.	ff
N(16GGG\LL	.	5	.	16rF<	.	.
16rCC	.	.	.	16G<LL 16GG</	.	mf
16EE-\JJ	.	2	.	16rA<	.	.
16rGG	.	.	.	16e-<JJ 16E-</	.	.
16AA\LL	.	1	.	16rc<	.	.
16rGG	.	.	.	16a<LL 16A</	.	.
16GG\JJ	.	5	.	16rc<	.	.
16rGG	.	.	.	16g<JJ 16G</	.	.
16E-\LL	.	2	.	16rb	.	.
16rF	.	.	.	16ee-LL 16e-/	.	.
16A\JJ	.	1	.	16rb	.	.
*Xped	*	*	*	*	*	*
16r	.	.	.	16aaJJ 16a/N)	.	.
=33	=33	=33	=33	=33	=33	=33
*ped	*	*	*	*	*	*
2D 2GG#X 2EEn 2DD^/	4r	.	2ddd 2gg#X 2een 2dd^\	4rc	.	.
.	N(>16GGGn\LL	5	.	16ryy	.	.
.	16rCC	.	.	16Gn<LL 16GGn</	.	.
.	16EEn\JJ	2	.	16rc<	.	.
.	16rGG	.	.	16en<JJ 16En</N)	.	.
*ped	*	*	*	*	*	*
2B- 2BB-^/	8r	.	2bb- 2b-^\	8rc	.	ff
.	N(>16GG#\	5	.	16rc<	.	mf
.	16rGG	.	.	16g< 16G</	.	.
.	16En\LL	2	.	16rb	.	.
.	16rF	.	.	16eenLL 16en/	.	.
.	16B-\JJ	1	.	16rb	.	.
*Xped	*	*	*	*	*	*
.	16rC	.	.	16bb-JJ 16b-/N)	.	.
!!LO:LB:g=original
=34	=34	=34	=34	=34	=34	=34
*ped	*	*	*	*	*	*
2G 2C#X 2GG^>/	4r	.	2gg 2cc#X 2g^\	4ryy	.	.
!	!	!	!	!	!	!LO:DY:a=2
.	(16GGG\LL	.	.	2ryy	.	mf
.	16GG\	.	.	.	.	.
.	16EE-X\	.	.	.	.	.
.	16E-X\JJ)	.	.	.	.	.
*ped	*	*	*	*	*	*
!	!	!	!	!	!	!LO:DY:a=2
(<16AAA\LL	2ryy	.	2B-< 2BB-</	.	.	sffz
16AA\	.	.	.	.	.	.
16GGG\	.	.	.	.	.	p
16GG\JJ)	.	.	.	.	.	.
N(>16E-\LL	.	2	.	16rb	.	>
!	!	!	!LO:TX:b:i:t=rit.	!	!	!
16rF	.	.	.	16e-/LL	2	.
16A\JJ	.	1	.	16rb	.	]
*Xped	*	*	*	*	*	*
16r	.	.	.	16a/JJN)	5	.
*	*	*	*v	*v	*	*
=35	=35	=35	=35	=35	=35
*ped	*	*	*	*	*
2.D 2.BB-/	4r	.	2.d 2.B-/	.	p
.	(8GGG\L	.	.	.	.
.	8DD\J	.	.	.	.
.	8BB-\L	.	.	.	.
.	8GG\	.	.	.	.
4ryy	8D\	.	4r	.	.
*Xped	*	*	*	*	*
.	8B-\J)	.	.	.	.
*v	*v	*	*	*	*
=36	=36	=36	=36	=36
*ped	*	*	*	*
4r	.	2.d 2.B-/	.	pp
(8GGG/L	.	.	.	.
8DD/J	.	.	.	.
8BB-/L	.	.	.	.
8GG/	.	.	.	.
8D/	.	4r	.	.
*Xped	*	*	*	*
8B-/J)	.	.	.	.
=37	=37	=37	=37	=37
!!LO:TX:a:i:t=molto rit.
4r	.	1d 1B-	.	pp >
(2A\	2	.	.	.
4G\)	.	.	.	]
==	==	==	==	==
*-	*-	*-	*-	*-
!!!system-decoration: {(g1)}
!!!RDF**kern: i = editorial accidental
!!!RDF**kern: > = above
!!!RDF**kern: < = below
!!!RDF**kern: N = linked
!!!RDF**dynam: > = "dim.", fontstyle= "italic"
!!!ENC: Filip Voros
!!!EED: Katarzyna Serwa
!!!END: 2023-10-13
!!!EEV: 2023-10-24
